X:121
T:Ronehamnsvisan.
S:Efter snickaren Bengtsson i Burs.
M:C
L:1/8
K:Eb
G|G> G G G B2 A> G|G> F F G F2 z2|
w:Pa Ro-ne-hamn finns krou-gar, ja krou-gar äi par-täi.
A A G A c2 B A|G> A B c B2 z B|
w:Up-pa »Gäu-lä hy-nu» um sun-dä träf-fäs vei. Dä
B> d f f (ed) c B|e> B A G F2 z G|
w:fa vö kaf-fi, bränn--väin u flik-kar ti bi-hag u
A B c c B2 E> F|G G A F E2 z|]
w:rask u gou bi-čä-niŋg, så’t man bläir nögd u glad.
